!!!SOCIAL_FUNCTION:	war songs
!!!PDT:	1932
!!!OTL: No_129_Song_of_Protection_During_the_Civil_War.krn
!!!REG: Wisconsin
!!!LANG: Non-Tone
!!!LING_GROUP: Algonquin
**kern
*staff1
=1-
*clefF4
*k[f#]
*M2/4
4r
8G\L
8G\J
=2
4B\
4B\
=3
4B\
8G\L
8G\J
=4
4A\
4A\
=5
4A\
8B\L
8A\J
=6||
*M3/4
4G\
4G\
8G\L
8E\J
=7||
*M6/8
8G\L
8G\
8E\J
8G\L
8G\
8D\J
=8||
*M2/4
4E\
8G\L
8E\J
=9
4D\
4D\
=10
8D\
8r
8G\L
8G\J
=11||
*M3/4
4G\
4G\
8D\L
8D\J
=12
4E\
8E\
8r
8G\L
8E\J
=13||
*M5/8
4D\
8D\
8r
8D\
=14
8D/L
8BB/
8BB/
8GG/
8GG/J
=15||
*M2/4
4GG/
8GG/
8r
=16
4GG/
4GG/
=17
4GG/
4r
==
*-
